src/svgs/fitness-watch.svg

<svg xmlns="http://www.w3.org/2000/svg" viewBox="0 0 24 24" width="512" height="512"><path d="M18 4H6a2 2 0 012-2h8a2 2 0 012 2zM8 22h8a2 2 0 002-2H6a2 2 0 002 2zM20 8v8a2 2 0 01-2 2H6a2 2 0 01-2-2V8a2 2 0 012-2h12a2 2 0 012 2zm-4.921 3.043a1.677 1.677 0 00-1.693-1.693A1.842 1.842 0 0012 9.994a1.842 1.842 0 00-1.386-.644 1.677 1.677 0 00-1.693 1.693c0 1.164 1.047 2.113 2.633 3.551L12 15l.446-.4c1.586-1.444 2.633-2.393 2.633-3.557z"/></svg>

<svg xmlns="http://www.w3.org/2000/svg" viewBox="0 0 24 24"><path d="M18,4H6A2,2,0,0,1,8,2h8A2,2,0,0,1,18,4ZM8,22h8a2,2,0,0,0,2-2H6A2,2,0,0,0,8,22ZM20,8v8a2,2,0,0,1-2,2H6a2,2,0,0,1-2-2V8A2,2,0,0,1,6,6H18A2,2,0,0,1,20,8Zm-4.921,3.043A1.677,1.677,0,0,0,13.386,9.35,1.842,1.842,0,0,0,12,9.994a1.842,1.842,0,0,0-1.386-.644,1.677,1.677,0,0,0-1.693,1.693c0,1.164,1.047,2.113,2.633,3.551L12,15l.446-.4C14.032,13.156,15.079,12.207,15.079,11.043Z"/></svg>
